public/images/icons/32x32/decouvrir_32_white.svg

<svg height="32" viewBox="0 0 32 32" width="32" xmlns="http://www.w3.org/2000/svg"><g fill="#fff" fill-rule="evenodd" stroke="#fff" stroke-width=".1" transform="translate(3.5 4.3)"><path d="m24.8430402 8.61148397-2.788068-7.71147313c-.2497673-.6914081-1.0154569-1.05071986-1.7070601-.8005624-.5911793.2137727-.938883.8045618-.8712347 1.40373988l-1.5340617.55445311c-.192215.06950173-.2917122.28176245-.2223568.47397742.0695505.19245883.2818112.29190727.4740262.22235676l1.4995791-.54221105 2.4946976 6.9008147-6.4440054 2.32984434c-.8024646-1.3595514-2.4860648-2.00311305-4.0235894-1.44714797-.7033575.25415687-1.2696137.72091587-1.6531169 1.30141377l-1.35004068-3.73343786c-.24367063-.67443504.10671564-1.42163962.78134578-1.66570043l6.6834328-2.4592502c.19241-.0695505.2918585-.28176246.2221129-.47402619-.0693067-.19221497-.2817625-.29166341-.4739774-.2221129l-6.68343282 2.45925019c-1.05852356.38291796-1.6081969 1.55537559-1.22562035 2.61370405l.12783441.35380039-5.64358934 2.04008305c-.30863646-.57059697-.99775222-.84606769-1.62590155-.61917502-.6914081.25015746-1.05032967 1.01584702-.8005624 1.70725512l1.21952371 3.3729556c.19601927.5424062.70911275.8800139 1.25512811.8800139.14992864 0 .30293-.0253133.45193196-.0792564.33492518-.1211525.6025922-.3654084.75388649-.6879452.12266446-.2617655.15680566-.5494782.10037513-.8278266l5.64339425-2.0400831.12598104.3484841c-.17699775.6442933-.16480446 1.3471631.07906126 2.0221346.2642529.7306705.7618853 1.333848 1.418762 1.7288129l-1.82670058 3.9555508h-1.56493512c-.77446876 0-1.40432515.6298564-1.40432515 1.4041301 0 .7744687.63005148 1.4045202 1.40432515 1.4045202h.29571158c.20421315 0 .37018817-.1657311.37018817-.3701881 0-.2046034-.16597502-.3701394-.37018817-.3701394h-.29571158c-.36614 0-.66414391-.2978089-.66414391-.6641927 0-.3659937.29800391-.6637537.66414391-.6637537h1.79948517l6.64724313.000195 1.8015336-.000195c.3661888 0 .6638025.29776.6638025.6637537 0 .3663838-.2976137.6641927-.6638025.6641927h-7.1947352c-.2044083 0-.3701882.165536-.3701882.3701394 0 .204457.1657799.3701881.3701882.3701881h7.1947352c.7744688 0 1.4045203-.6300515 1.4045203-1.4045202 0-.7742737-.6302466-1.4041301-1.4045203-1.4041301h-1.5648863l-1.8267494-3.9555508c1.3075593-.7889544 1.9385862-2.3986632 1.456171-3.8946331l6.4258618-2.32321124c.247475.37687014.6708259.60166554 1.1158808.60166554.1501238 0 .30293-.0257035.4518832-.0794515.334974-.1211525.602641-.36521328.7538865-.68775009.1512943-.3225368.1678772-.68453108.046871-1.01950504zm-21.75355412 5.85697183c-.06706308.1434906-.1861671.2522547-.33512028.3060027-.30751468.1110565-.64814632-.048578-.75905645-.3558976l-1.21952371-3.3729556c-.11105645-.3075147.04857805-.6481463.35589764-.7594466.06647779-.0238013.13432124-.0352142.20099412-.0352142.24293904 0 .47095349.1503188.55840374.391502l1.21932861 3.3727605c.0539431.1490019.04652958.3100021-.02092367.4532488zm.53289537-1.2145488-.85070119-2.3534994 5.62949391-2.03510819.85084751 2.35349929zm6.49404665 6.7162083 1.6832588-3.6452073c.3438507.1156411.7005287.1739251 1.0581334.1739251.3570194 0 .7148192-.058479 1.0621327-.1745104l1.6838441 3.6455975h-5.487369zm3.6311119-4.3688057c-.6508289.2352817-1.353845.2047985-1.9817992-.0851579 0 0-.0001951-.0001951-.0003414-.0001951-.0001951 0-.0003902-.000195-.0007804-.0003901-.0043896-.0019022-.0087792-.0036093-.0129737-.0057065-.6311732-.296053-1.1093939-.8203643-1.3465777-1.4759729-.48924342-1.3536499.2139678-2.8530339 1.5674225-3.3424724.2920536-.1055451.5909842-.15544.88494-.15544 1.0688147 0 2.0738341.6614614 2.4575324 1.7230577.4892434 1.3534547-.2139678 2.8530338-1.5674225 3.3422772zm10.3781936-6.28466351c-.0670631.14344182-.1861184.25205962-.3351203.30575885-.3074659.11105645-.6481463-.04857805-.7592028-.35589764l-2.7878729-7.71166822c-.1111053-.30751468.0487731-.64795123.3560439-.75905645.0663315-.02419148.1341262-.0354093.2008478-.0354093.2428903 0 .4711486.15031883.5584038.39130693l2.7876778 7.711717c.0539431.14875809.0466759.30995333-.0207773.45324883z"/><path d="m12.259764 11.4860756c-.4433479.1602197-.798075.483732-.9982888.9108872-.2002625.426765-.2219665.9061075-.0617468 1.3496505.1602198.4434942.4837321.7980749.9106922.9982887.2381593.1116417.4928526.1678772.7483751.1678772.2025061 0 .4054024-.035263.6014704-.1061304.4432992-.1602198.798075-.483732.9982888-.9106922.2000674-.426765.2219666-.9061074.0617468-1.3498455-.3311209-.9154232-1.3450658-1.3911564-2.2605377-1.0600355zm1.5281601 2.0955381c-.1160313.2478651-.3217564.4356905-.5795712.5287009-.2573759.0931567-.5357243.0803782-.7835894-.0360433-.2478651-.1159826-.4357393-.3217565-.5287009-.5795225-.0931567-.2574247-.0803781-.535773.0358483-.7836382.1161776-.2478651.3221466-.4356905.5797176-.5287008.1145193-.041506.2318675-.0611616.3473135-.0611616.4197417 0 .8145116.2599121.9650255.6767274.0931567.2574247.0803781.535773-.0360434.7836381z"/></g></svg>

<svg xmlns="http://www.w3.org/2000/svg" width="32" height="32" viewBox="0 0 32 32">
  <g fill="#FFF" fill-rule="evenodd" stroke="#FFF" stroke-width=".1" transform="translate(3.5 4.3)">
    <path d="M24.8430402,8.61148397 L22.0549722,0.900010838 C21.8052049,0.20860274 21.0395153,-0.150709017 20.3479121,0.099448442 C19.7567328,0.313221135 19.4090291,0.904010236 19.4766774,1.50318832 L17.9426157,2.05764143 C17.7504007,2.12714316 17.6509035,2.33940388 17.7202589,2.53161885 C17.7898094,2.72407768 18.0020701,2.82352612 18.1942851,2.75397561 L19.6938642,2.21176456 L22.1885618,9.11257926 L15.7445564,11.4424236 C14.9420918,10.0828722 13.2584916,9.43931055 11.720967,9.99527563 C11.0176095,10.2494325 10.4513533,10.7161915 10.0678501,11.2966894 L8.71780942,7.56325154 C8.47413879,6.8888165 8.82452506,6.14161192 9.4991552,5.89755111 L16.182588,3.43830091 C16.374998,3.36875041 16.4744465,3.15653845 16.4047009,2.96427472 C16.3353942,2.77205975 16.1229384,2.67261131 15.9307235,2.74216182 L9.24729068,5.20141201 C8.18876712,5.58432997 7.63909378,6.7567876 8.02167033,7.81511606 L8.14950474,8.16891645 L2.5059154,10.2089995 C2.19727894,9.63840253 1.50816318,9.36293181 0.880013849,9.58982448 C0.18860575,9.83998194 -0.170315821,10.6056715 0.0794514527,11.2970796 L1.29897516,14.6700352 C1.49499443,15.2124414 2.00808791,15.5500491 2.55410327,15.5500491 C2.70403191,15.5500491 2.85703327,15.5247358 3.00603523,15.4707927 C3.34096041,15.3496402 3.60862743,15.1053843 3.75992172,14.7828475 C3.88258618,14.521082 3.91672738,14.2333693 3.86029685,13.9550209 L9.5036911,11.9149378 L9.62967214,12.2634219 C9.45267439,12.9077152 9.46486768,13.610585 9.7087334,14.2855565 C9.9729863,15.016227 10.4706187,15.6194045 11.1274954,16.0143694 L9.30079482,19.9699202 L7.7358597,19.9699202 C6.96139094,19.9699202 6.33153455,20.5997766 6.33153455,21.3740503 C6.33153455,22.148519 6.96158603,22.7785705 7.7358597,22.7785705 L8.03157128,22.7785705 C8.23578443,22.7785705 8.40175945,22.6128394 8.40175945,22.4083824 C8.40175945,22.203779 8.23578443,22.038243 8.03157128,22.038243 L7.7358597,22.038243 C7.3697197,22.038243 7.07171579,21.7404341 7.07171579,21.3740503 C7.07171579,21.0080566 7.3697197,20.7102966 7.7358597,20.7102966 L9.53534487,20.7102966 L16.182588,20.7104916 L17.9841216,20.7102966 C18.3503104,20.7102966 18.6479241,21.0080566 18.6479241,21.3740503 C18.6479241,21.7404341 18.3503104,22.038243 17.9841216,22.038243 L10.7893864,22.038243 C10.5849781,22.038243 10.4191982,22.203779 10.4191982,22.4083824 C10.4191982,22.6128394 10.5849781,22.7785705 10.7893864,22.7785705 L17.9841216,22.7785705 C18.7585904,22.7785705 19.3886419,22.148519 19.3886419,21.3740503 C19.3886419,20.5997766 18.7583953,19.9699202 17.9841216,19.9699202 L16.4192353,19.9699202 L14.5924859,16.0143694 C15.9000452,15.225415 16.5310721,13.6157062 16.0486569,12.1197363 L22.4745187,9.79652506 C22.7219937,10.1733952 23.1453446,10.3981906 23.5903995,10.3981906 C23.7405233,10.3981906 23.8933295,10.3724871 24.0422827,10.3187391 C24.3772567,10.1975866 24.6449237,9.95352582 24.7961692,9.63098901 C24.9474635,9.30845221 24.9640464,8.94645793 24.8430402,8.61148397 Z M3.08948608,14.4684558 C3.022423,14.6119464 2.90331898,14.7207105 2.7543658,14.7744585 C2.44685112,14.885515 2.10621948,14.7258805 1.99530935,14.4185609 L0.775785639,11.0456053 C0.664729189,10.7380906 0.824363691,10.397459 1.13168328,10.2861587 C1.19816107,10.2623574 1.26600452,10.2509445 1.3326774,10.2509445 C1.57561644,10.2509445 1.80363089,10.4012633 1.89108114,10.6424465 L3.11040975,14.015207 C3.16435285,14.1642089 3.15693933,14.3252091 3.08948608,14.4684558 Z M3.62238145,13.253907 L2.77168026,10.9004076 L8.40117417,8.86529941 L9.25202168,11.2187987 L3.62238145,13.253907 Z M10.1164281,19.9701153 L11.7996869,16.324908 C12.1435376,16.4405491 12.5002156,16.4988331 12.8578203,16.4988331 C13.2148397,16.4988331 13.5726395,16.4403541 13.919953,16.3243227 L15.6037971,19.9699202 L10.1164281,19.9699202 L10.1164281,19.9701153 Z M13.74754,15.6013096 C13.0967111,15.8365913 12.393695,15.8061081 11.7657408,15.5161517 C11.7657408,15.5161517 11.7655457,15.5159566 11.7653994,15.5159566 C11.7652043,15.5159566 11.7650092,15.5157616 11.764619,15.5155665 C11.7602294,15.5136643 11.7558398,15.5119572 11.7516453,15.50986 C11.1204721,15.213807 10.6422514,14.6894957 10.4050676,14.0338871 C9.91582418,12.6802372 10.6190354,11.1808532 11.9724901,10.6914147 C12.2645437,10.5858696 12.5634743,10.5359747 12.8574301,10.5359747 C13.9262448,10.5359747 14.9312642,11.1974361 15.3149625,12.2590324 C15.8042059,13.6124871 15.1009947,15.1120662 13.74754,15.6013096 Z M24.1257336,9.31664609 C24.0586705,9.46008791 23.9396152,9.56870571 23.7906133,9.62240494 C23.4831474,9.73346139 23.142467,9.57382689 23.0314105,9.2665073 L20.2435376,1.55483908 C20.1324323,1.2473244 20.2923107,0.906887852 20.5995815,0.795782628 C20.665913,0.771591149 20.7337077,0.760373325 20.8004293,0.760373325 C21.0433196,0.760373325 21.2715779,0.910692157 21.3588331,1.15168026 L24.1465109,8.86339726 C24.200454,9.01215535 24.1931868,9.17335059 24.1257336,9.31664609 Z"/>
    <path d="M12.259764,11.4860756 C11.8164161,11.6462953 11.461689,11.9698076 11.2614752,12.3969628 C11.0612127,12.8237278 11.0395087,13.3030703 11.1997284,13.7466133 C11.3599482,14.1901075 11.6834605,14.5446882 12.1104206,14.744902 C12.3485799,14.8565437 12.6032732,14.9127792 12.8587957,14.9127792 C13.0613018,14.9127792 13.2641981,14.8775162 13.4602661,14.8066488 C13.9035653,14.646429 14.2583411,14.3229168 14.4585549,13.8959566 C14.6586223,13.4691916 14.6805215,12.9898492 14.5203017,12.5461111 C14.1891808,11.6306879 13.1752359,11.1549547 12.259764,11.4860756 Z M13.7879241,13.5816137 C13.6718928,13.8294788 13.4661677,14.0173042 13.2083529,14.1103146 C12.950977,14.2034713 12.6726286,14.1906928 12.4247635,14.0742713 C12.1768984,13.9582887 11.9890242,13.7525148 11.8960626,13.4947488 C11.8029059,13.2373241 11.8156845,12.9589758 11.9319109,12.7111106 C12.0480885,12.4632455 12.2540575,12.2754201 12.5116285,12.1824098 C12.6261478,12.1409038 12.743496,12.1212482 12.858942,12.1212482 C13.2786837,12.1212482 13.6734536,12.3811603 13.8239675,12.7979756 C13.9171242,13.0554003 13.9043456,13.3337486 13.7879241,13.5816137 Z"/>
  </g>
</svg>
